lib/logo_tmp/nrk-logo-nrk-klassisk-with-bg.svg

<svg width="110" height="24" viewBox="0 0 110 24" fill="none" xmlns="http://www.w3.org/2000/svg">
<rect y="-3.05176e-05" width="110" height="24" fill="#6B046A"/>
<path d="M6.00427 17.9999V6.00103H9.94146V17.9999H6.00427ZM15.2981 7.91072L17.5623 17.9999H13.2534L10.5498 6.00103H12.9664C13.5206 5.99384 14.0583 6.18919 14.4788 6.55033C14.8999 6.89632 15.1892 7.37664 15.2981 7.91072ZM18.1538 17.9999V6.00103H22.091V17.9999H18.1538ZM25.0647 10.564C24.6405 10.5682 24.223 10.4572 23.8568 10.2429C23.4955 10.0341 23.1954 9.7339 22.9865 9.37254C22.7721 9.00627 22.661 8.5887 22.6652 8.16426C22.6604 7.7424 22.7715 7.32732 22.9865 6.96437C23.1976 6.60693 23.4974 6.31003 23.8568 6.10246C24.2231 5.88844 24.6405 5.77745 25.0647 5.78132C25.4865 5.77678 25.9014 5.88787 26.2645 6.10246C26.6203 6.31185 26.9169 6.6085 27.1263 6.96437C27.3411 7.32742 27.4522 7.74243 27.4476 8.16426C27.4515 8.58867 27.3405 9.00617 27.1263 9.37254C26.9191 9.73231 26.6222 10.0322 26.2645 10.2429C25.9014 10.4579 25.4862 10.569 25.0642 10.564H25.0647ZM28.0559 17.9999V6.00103H31.9934V17.9999H28.0559ZM36.978 12.5582C36.9891 12.5698 37.0735 12.7078 37.2314 12.9722C37.3893 13.2366 37.5949 13.5746 37.8482 13.9862C38.1017 14.3976 38.3692 14.8342 38.6506 15.2959C38.932 15.7577 39.1969 16.1943 39.4451 16.6057C39.6924 17.0171 39.974 17.4819 40.29 17.9999H35.9641C35.6936 17.5605 35.4484 17.1634 35.2287 16.8085C35.0091 16.4536 34.7756 16.0705 34.5281 15.6593C34.2801 15.2484 34.0349 14.8485 33.7925 14.4594C33.5501 14.0703 33.3418 13.7296 33.1675 13.437C32.9925 13.1443 32.8713 12.9471 32.8039 12.8455C32.6368 12.5934 32.5379 12.3022 32.517 12.0005C32.5337 11.7109 32.6269 11.4309 32.787 11.189C32.8546 11.0764 32.9786 10.8764 33.1588 10.5891C33.339 10.3018 33.5503 9.96099 33.7925 9.56666C34.0347 9.17233 34.2799 8.76954 34.5281 8.35831C34.7763 7.94708 35.0098 7.56117 35.2287 7.20064C35.4488 6.84049 35.6939 6.44053 35.9641 6.00075H40.29L36.9439 11.4594C36.8404 11.6215 36.782 11.8083 36.7749 12.0005C36.786 12.2023 36.8565 12.3963 36.9774 12.5582H36.978Z" fill="white"/>
<path d="M54.0994 6.00989H51.9891L47.4029 11.294H46.7726V6.00989H45V17.9961H46.7726V12.577H46.8323L51.8206 18.013L54.2348 17.9959L48.5117 12.0534L54.0994 6.00989Z" fill="#EFB4ED"/>
<path d="M58.2439 16.755C58.1851 16.7614 58.1259 16.7643 58.0667 16.7637C57.9396 16.7674 57.8131 16.7444 57.6955 16.6959C57.5932 16.6504 57.5056 16.5773 57.4423 16.4849C57.369 16.3756 57.3201 16.2518 57.2988 16.1219C57.2684 15.9493 57.2543 15.7741 57.2567 15.5989V5.25017L55.5347 5.50341V16.3586C55.5275 16.6431 55.5733 16.9264 55.6697 17.1942C55.7507 17.4118 55.8841 17.606 56.058 17.7598C56.2313 17.9083 56.4363 18.0151 56.6573 18.0721C56.9026 18.1357 57.1551 18.1669 57.4085 18.165C57.5439 18.165 57.6731 18.1593 57.7969 18.1478C57.9207 18.1362 58.0417 18.1196 58.1598 18.0974C58.278 18.0752 58.3765 18.0524 58.4553 18.0299L58.6241 16.6959C58.5565 16.7075 58.489 16.7188 58.4215 16.7297C58.354 16.7406 58.2948 16.749 58.2439 16.755Z" fill="#EFB4ED"/>
<path d="M67.6557 16.9326C67.5323 16.9439 67.408 16.9252 67.2934 16.8781C67.1787 16.8311 67.0771 16.757 66.9973 16.6622C66.8407 16.3918 66.7756 16.0781 66.8116 15.7677L66.8454 12.29C66.8491 11.9253 66.8037 11.5618 66.7103 11.2093C66.6282 10.9003 66.491 10.6087 66.3052 10.3486C66.1174 10.0941 65.8788 9.88139 65.6045 9.72395C65.2861 9.54284 64.9415 9.41188 64.5831 9.33566C64.145 9.241 63.6977 9.19567 63.2495 9.20057C62.894 9.20042 62.5389 9.22297 62.1862 9.2681C61.8529 9.31 61.5227 9.37479 61.1983 9.46199C60.8975 9.54377 60.6016 9.6425 60.312 9.75771L60.1094 11.1927C60.3908 11.091 60.6581 11.0066 60.9114 10.9394C61.1646 10.8723 61.4093 10.816 61.6457 10.7706C61.8772 10.7262 62.1112 10.6952 62.3463 10.6778C62.5768 10.6609 62.8049 10.6524 63.0303 10.6524C63.3745 10.6451 63.718 10.6848 64.0514 10.7706C64.2947 10.8315 64.5185 10.9535 64.7014 11.1252C64.8642 11.292 64.9806 11.4985 65.039 11.7242C65.1111 12.0026 65.1453 12.2894 65.1406 12.577L65.1386 13.0008L63.1651 13.1341C62.4902 13.153 61.8252 13.302 61.2067 13.573C60.7439 13.7755 60.3444 14.0992 60.0504 14.51C59.8007 14.8754 59.6682 15.3082 59.6705 15.7508C59.6673 16.166 59.7689 16.5753 59.9659 16.9407C60.1724 17.3164 60.4831 17.6243 60.8607 17.8273C61.3212 18.0669 61.8359 18.1832 62.3547 18.165C62.8409 18.1762 63.3248 18.0959 63.7813 17.9283C64.176 17.7738 64.5371 17.5445 64.8449 17.253C64.9616 17.1409 65.0724 17.0228 65.1769 16.8991C65.2097 17.074 65.2715 17.2421 65.3597 17.3965C65.5102 17.655 65.7416 17.8567 66.0182 17.9705C66.3239 18.0933 66.651 18.1534 66.9804 18.1475C67.0817 18.1475 67.1802 18.145 67.2759 18.1391C67.3698 18.1336 67.463 18.1196 67.5544 18.0971C67.6444 18.0744 67.7258 18.0547 67.7992 18.0381C67.8653 18.023 67.9301 18.0033 67.9934 17.979L68.179 16.8476C68.0859 16.8797 67.9897 16.9024 67.892 16.9154C67.8137 16.926 67.7348 16.9317 67.6557 16.9326ZM64.8449 16.1729C64.6618 16.3175 64.4637 16.4419 64.254 16.544C64.0451 16.6458 63.8237 16.7197 63.5955 16.7637C63.3592 16.8093 63.1191 16.8319 62.8784 16.8313C62.6032 16.8392 62.3295 16.7874 62.0762 16.6794C61.8702 16.5897 61.6965 16.4395 61.5782 16.2486C61.4612 16.0462 61.4028 15.8154 61.4093 15.5817C61.3931 15.3004 61.4702 15.0215 61.6288 14.7886C61.8125 14.574 62.0616 14.4257 62.3378 14.3665C62.7691 14.2649 63.2118 14.2194 63.6547 14.2314H65.133L65.1253 15.907C65.0397 16.0035 64.9459 16.0925 64.8449 16.1729Z" fill="#EFB4ED"/>
<path d="M75.1173 14.1133C74.9445 13.9299 74.7454 13.7734 74.5264 13.6487C74.2998 13.5192 74.0626 13.409 73.8174 13.3195C73.6373 13.2632 73.4601 13.2042 73.2856 13.1423C73.1112 13.0804 72.9367 13.0241 72.7623 12.9734C72.5874 12.9228 72.4186 12.8693 72.2558 12.813C72.1027 12.761 71.9533 12.6989 71.8085 12.6271C71.6697 12.5533 71.537 12.4686 71.4117 12.3738C71.2959 12.2867 71.1984 12.1776 71.1247 12.0528C71.0502 11.9248 71.0122 11.7788 71.0147 11.6308C71.0103 11.4681 71.0514 11.3074 71.1334 11.1668C71.2215 11.0285 71.3436 10.9152 71.4879 10.8376C71.6646 10.7405 71.8554 10.6721 72.0535 10.6347C72.301 10.5873 72.5527 10.5648 72.8047 10.5675C72.9282 10.5675 73.0636 10.5734 73.2097 10.5844C73.3557 10.5953 73.5163 10.6153 73.6911 10.6434C73.8658 10.6716 74.0394 10.7082 74.2144 10.7529C74.3894 10.7976 74.5661 10.8488 74.7462 10.9048C74.9129 10.9564 75.0763 11.0184 75.2352 11.0905L75.3539 9.72335C75.1399 9.63332 74.9289 9.55445 74.7208 9.48674C74.5129 9.41956 74.3016 9.36319 74.0878 9.31789C73.8789 9.27363 73.6675 9.24263 73.4547 9.22505C73.2459 9.20817 73.0411 9.19974 72.8382 9.19974C72.3719 9.19502 71.9068 9.24889 71.4539 9.3601C71.0667 9.45428 70.6985 9.61418 70.3653 9.83282C70.063 10.0326 69.816 10.3055 69.6475 10.6263C69.4713 10.9797 69.3844 11.371 69.3943 11.7658C69.3892 12.0502 69.4349 12.3332 69.5294 12.6015C69.6097 12.8264 69.7298 13.0351 69.8839 13.2177C70.034 13.3899 70.2073 13.5404 70.3988 13.665C70.5982 13.7959 70.8103 13.9062 71.0319 13.9942C71.1553 14.0392 71.2848 14.0842 71.4204 14.129C71.5555 14.1743 71.6875 14.2165 71.8172 14.2556C71.9469 14.2947 72.0726 14.3347 72.197 14.3738C72.3214 14.4129 72.4415 14.4529 72.5597 14.492C72.6779 14.5311 72.7932 14.5682 72.9058 14.602C73.0569 14.6554 73.2037 14.7202 73.345 14.7959C73.4688 14.8616 73.5849 14.9409 73.6911 15.0325C73.7844 15.1143 73.8592 15.215 73.9105 15.3279C73.9619 15.4449 73.9877 15.5714 73.9862 15.6991C73.9923 15.8239 73.9704 15.9486 73.9222 16.0639C73.874 16.1793 73.8007 16.2824 73.7077 16.3659C73.4987 16.5406 73.249 16.6598 72.9817 16.7122C72.6686 16.7813 72.3488 16.8151 72.0282 16.8133C71.8277 16.812 71.6274 16.798 71.4286 16.7714C71.2093 16.7432 70.9787 16.7038 70.7367 16.6532C70.4947 16.6025 70.2471 16.5406 69.9939 16.4675C69.7404 16.3943 69.4844 16.3127 69.2257 16.2227L69.293 17.6576C69.5854 17.7591 69.8527 17.8407 70.0949 17.9024C70.3371 17.9641 70.5679 18.0177 70.7873 18.0631C70.9987 18.107 71.2131 18.1352 71.4286 18.1475C71.6368 18.1591 71.8478 18.1648 72.0617 18.1647C72.5326 18.1671 73.0025 18.1189 73.4631 18.0209C73.8686 17.9387 74.257 17.7873 74.6111 17.5735C74.9304 17.3786 75.1947 17.1056 75.3793 16.7804C75.5724 16.423 75.6683 16.0212 75.6573 15.6152C75.6644 15.3191 75.6158 15.0242 75.514 14.7461C75.4233 14.5118 75.2886 14.297 75.1173 14.1133Z" fill="#EFB4ED"/>
<path d="M83.0347 14.1133C82.8619 13.93 82.6627 13.7735 82.4438 13.6487C82.2172 13.5191 81.9799 13.409 81.7345 13.3195C81.5544 13.2632 81.3772 13.2042 81.2028 13.1423C81.0283 13.0804 80.8538 13.0241 80.6794 12.9734C80.5049 12.9228 80.3361 12.8693 80.1729 12.813C80.0198 12.761 79.8704 12.6989 79.7256 12.6271C79.5868 12.5533 79.4541 12.4686 79.3288 12.3739C79.2131 12.2867 79.1157 12.1776 79.0421 12.0528C78.9676 11.9248 78.9295 11.7789 78.9321 11.6308C78.9276 11.4681 78.9686 11.3074 79.0505 11.1668C79.1385 11.0284 79.2606 10.915 79.4051 10.8376C79.5817 10.7405 79.7726 10.6721 79.9706 10.6347C80.2181 10.5873 80.4697 10.5648 80.7216 10.5675C80.8454 10.5675 80.9805 10.5734 81.1271 10.5844C81.2737 10.5953 81.4335 10.6153 81.6082 10.6434C81.7829 10.6716 81.9568 10.7082 82.1313 10.7529C82.3057 10.7976 82.483 10.8488 82.6633 10.9048C82.8302 10.9564 82.9936 11.0184 83.1526 11.0905L83.271 9.72336C83.057 9.63332 82.846 9.55446 82.638 9.48674C82.43 9.41952 82.2187 9.36314 82.0049 9.3179C81.796 9.27363 81.5846 9.24263 81.3718 9.22506C81.1632 9.20818 80.9578 9.19974 80.7556 9.19974C80.2893 9.19498 79.8242 9.24884 79.3713 9.36011C78.984 9.4542 78.6156 9.6141 78.2824 9.83282C77.9801 10.0326 77.7334 10.3055 77.565 10.6263C77.3885 10.9796 77.3015 11.371 77.3117 11.7658C77.3066 12.0502 77.3524 12.3332 77.447 12.6015C77.5271 12.8266 77.6472 13.0353 77.8015 13.2177C77.9516 13.39 78.1249 13.5405 78.3165 13.665C78.5158 13.7959 78.7279 13.9062 78.9496 13.9942C79.073 14.0392 79.2024 14.0842 79.3378 14.129C79.4729 14.1743 79.6049 14.2165 79.7346 14.2556C79.8643 14.2947 79.9903 14.3347 80.1141 14.3738C80.2379 14.4129 80.3589 14.4529 80.4771 14.492C80.5953 14.5311 80.7106 14.5682 80.8234 14.602C80.9744 14.6554 81.121 14.7202 81.2621 14.7959C81.3861 14.8615 81.5023 14.9408 81.6085 15.0325C81.7018 15.1142 81.7766 15.2149 81.8277 15.3279C81.8794 15.4447 81.9054 15.5713 81.9039 15.6991C81.9099 15.8239 81.8881 15.9486 81.8398 16.064C81.7916 16.1793 81.7182 16.2825 81.6251 16.3659C81.4161 16.5407 81.1664 16.6598 80.8991 16.7122C80.586 16.7813 80.2662 16.8152 79.9456 16.8133C79.7451 16.812 79.5449 16.798 79.3463 16.7714C79.1268 16.7432 78.8961 16.7038 78.6541 16.6532C78.4121 16.6025 78.1645 16.5406 77.911 16.4675C77.658 16.3943 77.4021 16.3127 77.1432 16.2227L77.2107 17.6576C77.503 17.7591 77.7702 17.8407 78.0126 17.9024C78.2549 17.9641 78.4856 18.0177 78.7047 18.0631C78.9162 18.107 79.1306 18.1352 79.3463 18.1475C79.5543 18.1592 79.7653 18.1649 79.9793 18.1647C80.4501 18.1671 80.9198 18.1189 81.3803 18.0209C81.7858 17.9387 82.1741 17.7874 82.5283 17.5735C82.8476 17.3787 83.1121 17.1057 83.2967 16.7804C83.4899 16.4231 83.5859 16.0213 83.5749 15.6152C83.582 15.3191 83.5334 15.0242 83.4314 14.7461C83.3408 14.5118 83.2061 14.297 83.0347 14.1133Z" fill="#EFB4ED"/>
<path d="M87.0949 5.68063C86.9197 5.57357 86.7179 5.518 86.5127 5.52026C86.3048 5.51868 86.1004 5.57413 85.9218 5.68063C85.7458 5.78366 85.598 5.92865 85.4916 6.10268C85.3843 6.27772 85.3286 6.47954 85.3309 6.68485C85.3293 6.89282 85.3849 7.09722 85.4916 7.27572C85.5948 7.45226 85.7434 7.59798 85.9218 7.69777C86.1022 7.799 86.3059 7.85139 86.5127 7.84972C86.7168 7.85203 86.9179 7.79955 87.0949 7.69777C87.2685 7.59716 87.4115 7.45129 87.5087 7.27572C87.61 7.09535 87.6624 6.89168 87.6607 6.68485C87.663 6.4807 87.6106 6.27964 87.5087 6.10268C87.4084 5.92951 87.266 5.78437 87.0949 5.68063Z" fill="#EFB4ED"/>
<path d="M85.6177 17.9959H87.3397V9.21721L85.6177 9.47045V17.9959Z" fill="#EFB4ED"/>
<path d="M95.308 14.1133C95.1352 13.9299 94.9361 13.7734 94.7171 13.6487C94.4904 13.5191 94.2531 13.409 94.0078 13.3195C93.8279 13.2632 93.6507 13.2042 93.4762 13.1423C93.3018 13.0804 93.1273 13.0241 92.9527 12.9734C92.7782 12.9228 92.6094 12.8693 92.4462 12.813C92.2932 12.761 92.1438 12.6989 91.9991 12.6271C91.8602 12.5534 91.7275 12.4687 91.6021 12.3739C91.4864 12.2867 91.389 12.1776 91.3154 12.0528C91.2408 11.9248 91.2028 11.7789 91.2054 11.6308C91.2009 11.4681 91.2419 11.3074 91.3238 11.1668C91.4118 11.0284 91.5339 10.915 91.6783 10.8376C91.855 10.7405 92.0458 10.6721 92.2439 10.6347C92.4914 10.5873 92.7431 10.5648 92.9951 10.5675C93.1186 10.5675 93.254 10.5734 93.4003 10.5844C93.5466 10.5953 93.7067 10.6153 93.8815 10.6434C94.0562 10.6716 94.23 10.7082 94.4045 10.7529C94.5789 10.7976 94.7562 10.8488 94.9366 10.9048C95.1034 10.9564 95.2669 11.0184 95.4259 11.0905L95.5443 9.72336C95.3303 9.63332 95.1193 9.55446 94.9112 9.48674C94.7033 9.4195 94.492 9.36312 94.2782 9.3179C94.0693 9.27363 93.8579 9.24263 93.6451 9.22506C93.4367 9.20818 93.2313 9.19974 93.0289 9.19974C92.5626 9.19497 92.0974 9.24884 91.6445 9.36011C91.2572 9.45419 90.8889 9.61409 90.5557 9.83282C90.2534 10.0326 90.0066 10.3055 89.8382 10.6263C89.6617 10.9796 89.5748 11.371 89.585 11.7658C89.5798 12.0502 89.6256 12.3332 89.7203 12.6015C89.8004 12.8266 89.9205 13.0353 90.0748 13.2177C90.2249 13.3899 90.3982 13.5405 90.5898 13.665C90.7891 13.7959 91.0012 13.9062 91.2228 13.9942C91.3463 14.0392 91.4757 14.0842 91.6111 14.129C91.7465 14.1738 91.8787 14.2161 92.0078 14.2556C92.1368 14.2954 92.2634 14.3348 92.3874 14.3738C92.5114 14.4128 92.6324 14.4522 92.7504 14.492C92.8685 14.5316 92.984 14.5682 93.0967 14.602C93.2477 14.6554 93.3945 14.7202 93.5357 14.7959C93.6595 14.8615 93.7756 14.9409 93.8817 15.0325C93.9751 15.1141 94.0499 15.2149 94.1009 15.3279C94.1527 15.4447 94.1787 15.5713 94.1772 15.6991C94.1832 15.8239 94.1613 15.9486 94.1131 16.0639C94.0649 16.1793 93.9916 16.2824 93.8986 16.3659C93.6895 16.5406 93.4398 16.6597 93.1724 16.7122C92.8593 16.7813 92.5394 16.8152 92.2188 16.8133C92.0184 16.812 91.8182 16.798 91.6195 16.7714C91.4001 16.7432 91.1694 16.7038 90.9274 16.6532C90.6854 16.6025 90.4377 16.5406 90.1843 16.4675C89.9314 16.3943 89.6754 16.3127 89.4164 16.2227L89.4839 17.6576C89.7764 17.7591 90.0437 17.8407 90.2859 17.9024C90.528 17.9641 90.7587 18.0177 90.978 18.0631C91.1895 18.107 91.4039 18.1352 91.6195 18.1475C91.8276 18.1592 92.0386 18.1649 92.2526 18.1647C92.7234 18.1671 93.1931 18.1189 93.6535 18.0209C94.0591 17.9387 94.4475 17.7873 94.8018 17.5735C95.121 17.3786 95.3853 17.1056 95.5699 16.7804C95.7632 16.4231 95.8591 16.0213 95.8482 15.6152C95.8553 15.3191 95.8066 15.0242 95.7047 14.7461C95.614 14.5118 95.4793 14.297 95.308 14.1133Z" fill="#EFB4ED"/>
<path d="M103.092 17.9959H105.32L101.225 13.3814L105.236 9.38603H103.126L100.237 12.5599H99.6143V5.24994L97.8923 5.50314V17.9959H99.6143V13.8598H99.6424L103.092 17.9959Z" fill="#EFB4ED"/>
</svg>

<svg xmlns="http://www.w3.org/2000/svg" viewBox="0 0 110 24"><path fill="#6B046A" d="M0 0h110v24H0z"/><path fill="#fff" d="M6.004 18V6h3.937V18H6.004Zm9.294-10.09L17.562 18h-4.309L10.55 6h2.416a2.276 2.276 0 0 1 1.513.55c.42.345.71.826.82 1.36ZM18.154 18V6h3.937V18h-3.937Zm6.91-7.436a2.382 2.382 0 0 1-2.4-2.4 2.303 2.303 0 0 1 .323-1.2 2.411 2.411 0 0 1 3.278-.862c.355.21.652.506.861.862.215.363.326.778.322 1.2a2.4 2.4 0 0 1-1.183 2.079 2.302 2.302 0 0 1-1.2.321ZM28.057 18V6h3.937V18h-3.937Zm8.922-5.442c.011.012.096.15.253.414.158.265.364.603.617 1.014a315.936 315.936 0 0 1 1.597 2.62c.247.411.529.876.845 1.394h-4.326c-.27-.44-.516-.837-.735-1.192-.22-.354-.453-.738-.7-1.149-.249-.41-.494-.81-.737-1.2-.242-.389-.45-.73-.625-1.022a18.04 18.04 0 0 0-.363-.591 1.748 1.748 0 0 1-.287-.845c.017-.29.11-.57.27-.812.068-.113.192-.313.372-.6s.391-.628.633-1.022c.243-.395.488-.797.736-1.209l.7-1.157.736-1.2h4.326l-3.346 5.458a1.08 1.08 0 0 0-.17.542c.012.201.082.395.203.557h.001Z"/><path fill="#EFB4ED" d="M54.1 6.01h-2.11l-4.587 5.284h-.63V6.01H45v11.986h1.773v-5.419h.06l4.988 5.436 2.414-.017-5.723-5.943 5.587-6.043ZM58.244 16.755c-.059.006-.118.01-.177.009a.904.904 0 0 1-.371-.068.605.605 0 0 1-.254-.211.919.919 0 0 1-.143-.363 2.795 2.795 0 0 1-.042-.523V5.25l-1.722.253V16.36c-.007.284.038.567.135.835.08.218.214.412.388.566.173.148.378.255.6.312.245.064.497.095.75.093a4.198 4.198 0 0 0 .752-.068 3.35 3.35 0 0 0 .295-.067l.17-1.334-.203.034c-.068.01-.127.019-.178.025ZM67.656 16.933a.769.769 0 0 1-.659-.27 1.451 1.451 0 0 1-.185-.895l.033-3.478a4.059 4.059 0 0 0-.135-1.08c-.082-.31-.219-.601-.405-.861a2.284 2.284 0 0 0-.7-.625 3.567 3.567 0 0 0-1.022-.388A6.004 6.004 0 0 0 63.25 9.2c-.355 0-.71.022-1.063.067a7.327 7.327 0 0 0-.988.194c-.3.082-.596.18-.886.296l-.203 1.435a9.643 9.643 0 0 1 1.537-.422c.231-.045.465-.076.7-.093.23-.017.459-.026.684-.026.344-.007.688.033 1.021.119.244.06.468.182.65.354.163.167.28.373.338.6.072.278.106.564.102.852l-.002.424-1.974.133a5.246 5.246 0 0 0-1.958.439 2.804 2.804 0 0 0-1.157.937 2.18 2.18 0 0 0-.38 1.24c-.003.416.099.825.296 1.19.206.376.517.684.895.887.46.24.975.356 1.494.338.486.011.97-.07 1.426-.237a3.292 3.292 0 0 0 1.064-.675c.117-.112.227-.23.332-.354.033.175.094.343.183.497.15.259.382.46.658.575.306.122.633.182.962.177.102 0 .2-.003.296-.009.094-.005.187-.02.278-.042.09-.023.172-.042.245-.059a1.43 1.43 0 0 0 .194-.059l.186-1.131a1.48 1.48 0 0 1-.287.067c-.078.011-.157.017-.236.018Zm-2.811-.76a3.246 3.246 0 0 1-.591.371c-.209.102-.43.176-.659.22a3.735 3.735 0 0 1-.717.067 1.906 1.906 0 0 1-.802-.152c-.206-.09-.38-.24-.498-.43a1.262 1.262 0 0 1-.169-.667c-.016-.282.061-.56.22-.793.184-.215.433-.363.709-.422a5.137 5.137 0 0 1 1.317-.136h1.478l-.008 1.676c-.085.096-.18.186-.28.266ZM75.117 14.113a2.535 2.535 0 0 0-.59-.464 4.626 4.626 0 0 0-.71-.33c-.18-.056-.357-.115-.531-.177a9.458 9.458 0 0 0-.524-.169c-.175-.05-.343-.104-.506-.16a3.647 3.647 0 0 1-.448-.186 2.964 2.964 0 0 1-.396-.253 1.104 1.104 0 0 1-.287-.321.812.812 0 0 1-.11-.422.874.874 0 0 1 .118-.464.959.959 0 0 1 .355-.33 1.91 1.91 0 0 1 .566-.202c.247-.048.499-.07.75-.067a5.443 5.443 0 0 1 .887.075c.175.029.348.065.523.11.175.045.352.096.532.152.167.051.33.113.49.186l.118-1.368a8.083 8.083 0 0 0-.633-.236 6.317 6.317 0 0 0-.633-.17 5.067 5.067 0 0 0-.633-.092 7.637 7.637 0 0 0-.617-.025 5.569 5.569 0 0 0-1.384.16 3.486 3.486 0 0 0-1.089.473c-.302.2-.549.473-.718.793a2.418 2.418 0 0 0-.253 1.14c-.005.284.04.567.135.835.08.225.2.434.355.617.15.172.323.322.515.447.2.13.411.241.633.33a13.454 13.454 0 0 0 .785.26l.38.119c.124.039.245.079.363.118.118.04.233.076.346.11.15.053.298.118.439.194.124.066.24.145.346.237a.873.873 0 0 1 .22.295.897.897 0 0 1 .075.371.84.84 0 0 1-.278.667 1.617 1.617 0 0 1-.726.346c-.313.07-.633.103-.954.101-.2-.001-.4-.015-.6-.042a8.992 8.992 0 0 1-.691-.118c-.242-.05-.49-.112-.743-.185a15.02 15.02 0 0 1-.768-.245l.067 1.435c.292.101.56.183.802.244.242.062.473.116.692.161.212.044.426.072.642.085.208.011.419.017.633.017.47.002.94-.046 1.401-.144a3.608 3.608 0 0 0 1.148-.448c.32-.194.584-.467.768-.793a2.32 2.32 0 0 0 .278-1.165 2.364 2.364 0 0 0-.143-.869 1.972 1.972 0 0 0-.397-.633ZM83.035 14.113a2.543 2.543 0 0 0-.591-.464 4.61 4.61 0 0 0-.71-.33c-.18-.056-.357-.115-.531-.177a9.488 9.488 0 0 0-.524-.169c-.174-.05-.343-.104-.506-.16a3.647 3.647 0 0 1-.447-.186 2.973 2.973 0 0 1-.397-.253 1.105 1.105 0 0 1-.287-.321.81.81 0 0 1-.11-.422.874.874 0 0 1 .118-.464.954.954 0 0 1 .355-.33 1.91 1.91 0 0 1 .566-.202c.247-.048.499-.07.75-.067a5.46 5.46 0 0 1 .887.075c.175.029.349.065.523.11.175.045.352.096.532.152.167.051.33.113.49.186l.118-1.368a8.096 8.096 0 0 0-.633-.236 6.3 6.3 0 0 0-.633-.17 5.063 5.063 0 0 0-.633-.092 7.639 7.639 0 0 0-.616-.025 5.564 5.564 0 0 0-1.385.16 3.483 3.483 0 0 0-1.089.473c-.302.2-.549.473-.717.793a2.41 2.41 0 0 0-.253 1.14c-.005.284.04.567.135.835.08.226.2.434.355.617.15.172.323.322.514.447.2.13.412.241.634.33a13.64 13.64 0 0 0 .785.26l.38.119c.123.039.244.079.362.118.118.04.234.076.346.11.151.053.298.118.44.194.123.066.24.145.346.237a.868.868 0 0 1 .295.666.84.84 0 0 1-.279.667 1.616 1.616 0 0 1-.726.346c-.313.07-.633.103-.953.101-.2-.001-.401-.015-.6-.042a8.982 8.982 0 0 1-.692-.118c-.242-.05-.49-.112-.743-.185a15.231 15.231 0 0 1-.768-.245l.068 1.435c.292.101.56.183.802.244.242.062.473.116.692.161.211.044.426.072.641.085.208.011.42.017.633.017.471.002.94-.046 1.401-.144a3.607 3.607 0 0 0 1.148-.448c.32-.194.584-.467.769-.793.193-.357.289-.759.278-1.165a2.36 2.36 0 0 0-.144-.869 1.968 1.968 0 0 0-.396-.633ZM87.095 5.68a1.094 1.094 0 0 0-.582-.16 1.137 1.137 0 0 0-.591.16 1.236 1.236 0 0 0-.43.423 1.09 1.09 0 0 0-.161.582c-.002.208.054.412.16.59.104.177.252.323.43.423.181.101.385.153.592.152.204.002.405-.05.582-.152.174-.1.317-.247.414-.422.101-.18.153-.384.152-.591a1.14 1.14 0 0 0-.152-.582 1.193 1.193 0 0 0-.414-.422ZM85.618 17.996h1.722V9.217l-1.722.253v8.526ZM95.308 14.113a2.535 2.535 0 0 0-.59-.464 4.62 4.62 0 0 0-.71-.33 14.91 14.91 0 0 1-.532-.177 9.41 9.41 0 0 0-.523-.169c-.175-.05-.344-.104-.507-.16a3.644 3.644 0 0 1-.447-.186 2.955 2.955 0 0 1-.397-.253 1.105 1.105 0 0 1-.287-.321.81.81 0 0 1-.11-.422.874.874 0 0 1 .119-.464.955.955 0 0 1 .354-.33 1.91 1.91 0 0 1 .566-.202c.247-.048.5-.07.751-.067a5.452 5.452 0 0 1 .886.075c.175.029.349.065.523.11.175.045.352.096.533.152.166.051.33.113.489.186l.118-1.368a8.083 8.083 0 0 0-.633-.236 6.28 6.28 0 0 0-.633-.17 5.063 5.063 0 0 0-.633-.092 7.631 7.631 0 0 0-.616-.025 5.564 5.564 0 0 0-1.385.16 3.482 3.482 0 0 0-1.088.473c-.303.2-.55.473-.718.793a2.41 2.41 0 0 0-.253 1.14c-.005.284.04.567.135.835.08.226.2.434.355.617.15.172.323.322.515.447.2.13.411.241.633.33a13.759 13.759 0 0 0 .785.26l.38.119c.123.039.244.078.362.118.118.04.234.076.347.11.15.053.297.118.439.194.123.066.24.145.346.237a.865.865 0 0 1 .295.666.841.841 0 0 1-.278.667c-.21.175-.46.294-.727.346-.313.07-.633.103-.953.101a4.75 4.75 0 0 1-.6-.042 8.988 8.988 0 0 1-.692-.118c-.242-.05-.49-.112-.743-.185a15.3 15.3 0 0 1-.768-.245l.068 1.435a10 10 0 0 0 .802.244c.242.062.473.116.692.161.212.044.426.072.642.085.208.011.419.017.633.017.47.002.94-.046 1.4-.144a3.61 3.61 0 0 0 1.149-.448c.319-.194.583-.467.768-.793.193-.357.29-.759.278-1.165a2.362 2.362 0 0 0-.143-.869 1.972 1.972 0 0 0-.397-.633ZM103.092 17.996h2.228l-4.095-4.615 4.011-3.995h-2.11l-2.889 3.174h-.623V5.25l-1.722.253v12.493h1.722V13.86h.028l3.45 4.136Z"/></svg>
